X:1
T:One More Time
C:John Wobus
S:John Wobus composed 3/22/2004
M:2/4
R:reel
K:A
|:e3A cAeA | cAeA cAeA | cAeA dcBA | BcBA F2E2 |
 e3A cAeA | cAeA cAeA | cAeA dcBA | BcBG A4 :|
|: EFED CA,CE | FEFG AGAB | cAeA cAeA | BcBA F2E2 |
 EFED CA,CE | FEFG AGAB | cAeA dcBA | BcBG A4 :|
W:Copyright 2004 John Wobus, PGTPPCATPL AORR
